X:4
T:Cumberland Gap
C:Traditional
N: Transcribed by Mike Herilhy
R:bluegrass
L:1/8
Q:1/4=149
M:4/4
K:G
|: "G"DD E2 G4 | BB d2 "Em"e4 | "G"d2 d2 BA G2 | "D"EG G2 "G"G4 | "G"D2 ED G3G | 
B2 d2 "Em"e4 | "G"d2 d2 BA G2 | "D"EG G2 "G"G4 | "G"GF GA BA GB | AG ED "Em"GE DB, | 
"G"GF GA BA GB | "D"AG ED "G"G2 gg | "G"GF GA BA GB | AG ED "Em"GE DB, | "G"GF GA BA GB | 
"D"AG ED "G"G2 gg :| 

